images_sukapura_svg/cmd/sc_sortdescending.svg

<svg viewBox="0 0 16 16" xmlns="http://www.w3.org/2000/svg" xmlns:xlink="http://www.w3.org/1999/xlink"><linearGradient id="a" gradientUnits="userSpaceOnUse" x1="3.077552" x2="3.06971" y1="7.555077" y2="-.078401"><stop offset="0" stop-color="#0040dd"/><stop offset="1" stop-color="#0a84ff"/></linearGradient><path d="m1.574427 6.4858034h4.409789v1.0519402h-5.984216v-.9474428l4.1589953-5.5244276h-4.09629689v-1.06587314h5.71252279v.91261035z" fill="url(#a)"/><g fill="#69696e"><path d="m10.5 0c-.277 0-.5.223-.5.5v10.5h-2.5a.50033631.50033631 0 0 0 -.3535156.853516l3.9999996 4a.50033631.50033631 0 0 0 .707032 0l4-4a.50033631.50033631 0 0 0 -.353516-.853516h-2.5v-10.5c0-.277-.223-.5-.5-.5z"/><path d="m4.5278362 15.870448q-.1036415-.207283-.1684174-.738445-.8356092.867997-1.995098.867997-1.0364146 0-1.7036065-.582983-.6607143-.589461-.6607143-1.489846 0-1.094713.82913167-1.697129.83560923-.608894 2.34488793-.608894h1.1659665v-.550595q0-.628326-.3757003-.997549-.3757003-.3757002-1.1076681-.3757002-.6412815 0-1.0752801.3238792-.4339986.32388-.4339986.783789h-1.20483199q0-.524685.36922269-1.0105044.37570029-.4922969 1.0105042-.7773109.6412815-.285014 1.4056373-.285014 1.2113095 0 1.8979342.6088936.6866246.6024159.712535 1.6647407v3.225841q0 .965161.2461485 1.535189v.103641zm-1.9886205-.91334q.5635504 0 1.0688026-.291492.5052521-.291491.7319678-.757878v-1.438025h-.9392508q-2.2023809 0-2.2023809 1.28904 0 .563551.3757002.880953.3757003.317402.9651611.317402z"/></g></svg>

<?xml version="1.0" encoding="UTF-8" standalone="no"?>
<svg
   xmlns:dc="http://purl.org/dc/elements/1.1/"
   xmlns:cc="http://creativecommons.org/ns#"
   xmlns:rdf="http://www.w3.org/1999/02/22-rdf-syntax-ns#"
   xmlns:svg="http://www.w3.org/2000/svg"
   xmlns="http://www.w3.org/2000/svg"
   xmlns:xlink="http://www.w3.org/1999/xlink"
   xmlns:sodipodi="http://sodipodi.sourceforge.net/DTD/sodipodi-0.dtd"
   xmlns:inkscape="http://www.inkscape.org/namespaces/inkscape"
   viewBox="0 0 16 16"
   version="1.1"
   id="svg10"
   sodipodi:docname="sc_sortdescending.svg"
   inkscape:export-filename="/home/rizmut/Documents/Rizmut/Github/libreoffice-style-sukapura/images_sukapura/cmd/sc_sortdescending.png"
   inkscape:export-xdpi="96"
   inkscape:export-ydpi="96"
   inkscape:version="0.92.3 (2405546, 2018-03-11)">
  <metadata
     id="metadata16">
    <rdf:RDF>
      <cc:Work
         rdf:about="">
        <dc:format>image/svg+xml</dc:format>
        <dc:type
           rdf:resource="http://purl.org/dc/dcmitype/StillImage" />
        <dc:title></dc:title>
      </cc:Work>
    </rdf:RDF>
  </metadata>
  <defs
     id="defs14">
    <linearGradient
       gradientTransform="translate(-25,9)"
       id="a"
       gradientUnits="userSpaceOnUse"
       x1="14"
       x2="13.79661"
       y1="22"
       y2="2.1355929">
      <stop
         offset="0"
         stop-color="#0040dd"
         id="stop2799" />
      <stop
         offset="1"
         stop-color="#0a84ff"
         id="stop2801" />
    </linearGradient>
    <linearGradient
       inkscape:collect="always"
       xlink:href="#a"
       id="linearGradient1563"
       x1="6"
       y1="12"
       x2="6"
       y2="3"
       gradientUnits="userSpaceOnUse"
       gradientTransform="matrix(0.98828473,0,0,0.98828473,0.53905066,0.17203779)" />
    <linearGradient
       inkscape:collect="always"
       xlink:href="#a"
       id="linearGradient1603"
       x1="3"
       y1="7.8748569"
       x2="2.9919748"
       y2="0.062357195"
       gradientUnits="userSpaceOnUse"
       gradientTransform="matrix(0.9770852,0,0,0.9770852,0.14629633,-0.13932937)" />
  </defs>
  <sodipodi:namedview
     pagecolor="#ffffff"
     bordercolor="#666666"
     borderopacity="1"
     objecttolerance="10"
     gridtolerance="10"
     guidetolerance="10"
     inkscape:pageopacity="0"
     inkscape:pageshadow="2"
     inkscape:window-width="1366"
     inkscape:window-height="685"
     id="namedview12"
     showgrid="true"
     inkscape:snap-global="false"
     inkscape:zoom="16"
     inkscape:cx="7.4402868"
     inkscape:cy="11.189549"
     inkscape:window-x="0"
     inkscape:window-y="0"
     inkscape:window-maximized="1"
     inkscape:current-layer="svg10">
    <inkscape:grid
       type="xygrid"
       id="grid823"
       spacingx="0.5"
       spacingy="0.5"
       empspacing="2" />
  </sodipodi:namedview>
  <g
     aria-label="z"
     style="font-style:normal;font-weight:normal;font-size:14.26737404px;line-height:1.25;font-family:sans-serif;letter-spacing:0px;word-spacing:0px;fill:url(#linearGradient1603);fill-opacity:1;stroke:none;stroke-width:0.35668436"
     id="text834">
    <path
       d="M 1.574427,6.4858034 H 5.984216 V 7.5377436 H 0 V 6.5903008 L 4.1589953,1.0658732 H 0.06269841 V 5.7742e-8 H 5.7752212 V 0.91261041 Z"
       style="font-style:normal;font-variant:normal;font-weight:normal;font-stretch:normal;font-family:Roboto;-inkscape-font-specification:Roboto;fill:url(#linearGradient1603);fill-opacity:1;stroke-width:0.35668436"
       id="path1670" />
  </g>
  <path
     style="fill:#69696e;fill-opacity:1;stroke:none;stroke-width:0.999439;stroke-linecap:round;stroke-linejoin:round"
     d="M 10.5 0 C 10.223 0 10 0.223 10 0.5 L 10 11 L 7.5 11 A 0.50033631 0.50033631 0 0 0 7.1464844 11.853516 L 11.146484 15.853516 A 0.50033631 0.50033631 0 0 0 11.853516 15.853516 L 15.853516 11.853516 A 0.50033631 0.50033631 0 0 0 15.5 11 L 13 11 L 13 0.5 C 13 0.223 12.777 0 12.5 0 L 10.5 0 z "
     id="path2" />
  <g
     aria-label="a"
     style="font-style:normal;font-weight:normal;font-size:13.26610661px;line-height:1.25;font-family:sans-serif;letter-spacing:0px;word-spacing:0px;fill:#69696e;fill-opacity:1;stroke:none;stroke-width:0.3316527"
     id="text838">
    <path
       d="M 4.5278362,15.870448 Q 4.4241947,15.663165 4.3594188,15.132003 3.5238096,16 2.3643208,16 1.3279062,16 0.6607143,15.417017 0,14.827556 0,13.927171 0,12.832458 0.82913167,12.230042 1.6647409,11.621148 3.1740196,11.621148 h 1.1659665 v -0.550595 q 0,-0.628326 -0.3757003,-0.997549 -0.3757003,-0.3757002 -1.1076681,-0.3757002 -0.6412815,0 -1.0752801,0.3238792 -0.4339986,0.32388 -0.4339986,0.783789 H 0.14250701 q 0,-0.524685 0.36922269,-1.0105044 0.37570029,-0.4922969 1.0105042,-0.7773109 0.6412815,-0.285014 1.4056373,-0.285014 1.2113095,0 1.8979342,0.6088936 0.6866246,0.6024159 0.712535,1.6647407 v 3.225841 q 0,0.965161 0.2461485,1.535189 v 0.103641 z m -1.9886205,-0.91334 q 0.5635504,0 1.0688026,-0.291492 0.5052521,-0.291491 0.7319678,-0.757878 V 12.469713 H 3.4007353 q -2.2023809,0 -2.2023809,1.28904 0,0.563551 0.3757002,0.880953 0.3757003,0.317402 0.9651611,0.317402 z"
       style="font-style:normal;font-variant:normal;font-weight:normal;font-stretch:normal;font-family:Roboto;-inkscape-font-specification:Roboto;fill:#69696e;fill-opacity:1;stroke-width:0.3316527"
       id="path1667" />
  </g>
</svg>
